X: 23827
T: Little Nipper, The
R: jig
M: 6/8
K: Dmajor
d2 B|:A2 A {B}AFA|ded AFA|dcd ede|faf edB|
A2A {B}AFA|ded AFA|ded e/f/ge|1 fed B2 d:|2 fed Bdg||
|:f2 d {e}dcd|faf edB|fed BAF|ABA Adg|
f2 d {e}dcd|e/f/ge fef|gfe fed||1 fee efg:|2 fed B2 d||

